docs/images/experiences-icon.svg

<svg viewBox="0 0 634.66 634.66" xmlns="http://www.w3.org/2000/svg"><circle cx="317.33" cy="317.33" fill="#ff495c" r="317.33"/><g fill="#fff"><path d="m163.17 442.66h146.84v25.38h-146.84z" transform="matrix(.69841529 -.71569273 .71569273 .69841529 -254.54 306.65)"/><path d="m321.08 555.25c-131.4 2.07-239.6-102.77-241.67-234.17s102.77-239.6 234.17-241.67 239.59 102.76 241.67 234.15-102.82 239.44-234.17 241.69zm-7.08-450.44c-117.38 1.86-211 98.52-209.18 215.9s98.52 211 215.9 209.18 211-98.51 209.18-215.89-98.6-210.91-215.9-209.19z"/><path d="m303.44 424.86a39.05 39.05 0 1 1 39-39.09 39.09 39.09 0 0 1 -39 39.09zm0-50a11.12 11.12 0 1 0 11.12 11.14 11.12 11.12 0 0 0 -11.12-11.12z"/><path d="m307.11 478.66q-4.34 0-8.71-.37a98.86 98.86 0 0 1 -68.73-35.79c-32.61-39.68-30.61-89.67 5.37-133.76 34.64-42.42 53.36-89.67 51.35-129.68l-1.26-24.94 20.8 13.88a403.61 403.61 0 0 1 87.55 79.44 147.47 147.47 0 0 1 -20.23 207.49 103.75 103.75 0 0 1 -66.14 23.73zm3.71-276.41c-4.52 39.91-24.23 83.26-56.13 122.27-28.27 34.61-30.23 71.77-5.45 101.93a74.1 74.1 0 0 0 51.43 26.75 78.81 78.81 0 0 0 56.62-17.82 122.27 122.27 0 0 0 16.75-172 379.23 379.23 0 0 0 -63.4-61.14z"/></g></svg>

<svg xmlns="http://www.w3.org/2000/svg" viewBox="0 0 634.66 634.66"><defs><style>.cls-1{fill:#ff495c;}.cls-2{fill:#fff;}</style></defs><title>experiences-icon</title><g id="Layer_2" data-name="Layer 2"><g id="Layer_1-2" data-name="Layer 1"><g id="Layer_2-2" data-name="Layer 2"><g id="Layer_1-2-2" data-name="Layer 1-2"><circle class="cls-1" cx="317.33" cy="317.33" r="317.33"/></g></g><g id="Layer_2-3" data-name="Layer 2"><g id="content"><rect class="cls-2" x="163.17" y="442.66" width="146.84" height="25.38" transform="translate(-254.54 306.65) rotate(-45.7)"/><path class="cls-2" d="M321.08,555.25c-131.4,2.07-239.6-102.77-241.67-234.17S182.18,81.48,313.58,79.41,553.17,182.17,555.25,313.56,452.43,553,321.08,555.25ZM314,104.81c-117.38,1.86-211,98.52-209.18,215.9s98.52,211,215.9,209.18,211-98.51,209.18-215.89S431.3,103.09,314,104.81Z"/><path class="cls-2" d="M303.44,424.86a39.05,39.05,0,1,1,39-39.09v0A39.09,39.09,0,0,1,303.44,424.86Zm0-50A11.12,11.12,0,1,0,314.56,386,11.12,11.12,0,0,0,303.44,374.88Z"/><path class="cls-2" d="M307.11,478.66q-4.34,0-8.71-.37a98.86,98.86,0,0,1-68.73-35.79c-32.61-39.68-30.61-89.67,5.37-133.76,34.64-42.42,53.36-89.67,51.35-129.68l-1.26-24.94L305.93,168a403.61,403.61,0,0,1,87.55,79.44,147.47,147.47,0,0,1-20.23,207.49A103.75,103.75,0,0,1,307.11,478.66Zm3.71-276.41c-4.52,39.91-24.23,83.26-56.13,122.27-28.27,34.61-30.23,71.77-5.45,101.93a74.1,74.1,0,0,0,51.43,26.75,78.81,78.81,0,0,0,56.62-17.82h0a122.27,122.27,0,0,0,16.75-172,379.23,379.23,0,0,0-63.4-61.14Z"/></g></g></g></g></svg>
